X:1
T:[ID 7-195]
T:[ID 7-195]
T:Bezeichnung standardisiert: March March In dieser Quelle auch als: Marsch
T:Urheber unbekannt Erstbeleg: 1776-1791 (Datum in der schriftlichen Quelle) Datum in der hier transkribierten schriftlichen Quelle: 1799
C:Urheber unbekannt
C:Erstbeleg: 1776-1791 (Datum in der schriftlichen Quelle)
C:Datum in der hier transkribierten schriftlichen Quelle: 1799
%%score 1 2
L:1/8
M:4/4
K:G
V:1 treble nm="Primo"
V:2 treble nm="Secondo"
V:1
 G>G | G2 D>D D2 B>B | B2 G>G G2 d2 | d>Bd>e d>cB>A | G4 z2 A2 | Bd^ce dfef | g2 fe f2 A2 | %7
 Bgfe d2 ^c2 | d2 d>d d2 :: A>A | A2 D>D D2 B>B | B2 G>G G2 Bc | d2 d2 gdcB | A4 z2 Bc | %14
 dddd addd | edcB c2 AB | cccc accc | dcBA B2 d2 | d2 (3edc B2 A2 | G2 G>G G2 :| %20
V:2
 !fermata!B,>B, | B,2 B,>B, B,2 G>G | G2 B,>B, B,2 B2 | B>GB>c B>AG>F | G4 z2 F2 | GBEG Fd^cd | %6
 e2 d=c d2 F2 | GBAG F2 E2 | F2 F>F F2 :: F>F | F2 F>F F2 G>G | G2 B,>B, B,2 GA | B2 B2 BBAG | %13
 F4 z2 GA | BBBB BBBB | B2 AG A2 FG | AAAA cAAA | A2 GF G2 B2 | B2 (3cBA G2 DC | B,2 B,>B, B,2 :| %20

